src/pos-icons/iframe-variable-outline.svg

<svg height="24" viewBox="0 0 24 24" width="24" xmlns="http://www.w3.org/2000/svg"><path d="m21 2h-18c-1.1 0-2 .9-2 2v16c0 1.1.9 2 2 2h18c1.1 0 2-.9 2-2v-16c0-1.1-.9-2-2-2m0 18h-18v-14h18zm-4.4-12c1.5 1.3 2.4 3.1 2.4 5s-.9 3.7-2.4 5l-1.6-.6c1.3-1 2-2.7 2-4.4s-.7-3.4-2-4.4zm-9.2 0 1.6.6c-1.3 1-2 2.7-2 4.4s.7 3.4 2 4.4l-1.6.6c-1.5-1.3-2.4-3.1-2.4-5s.9-3.7 2.4-5m4.7 4 1.4-2h1.5l-2.2 3 1.3 3h-1.3l-.8-2-1.4 2h-1.6l2.3-3.1-1.3-2.9h1.3z"/></svg>

<?xml version="1.0" encoding="UTF-8"?><!DOCTYPE svg PUBLIC "-//W3C//DTD SVG 1.1//EN" "http://www.w3.org/Graphics/SVG/1.1/DTD/svg11.dtd"><svg xmlns="http://www.w3.org/2000/svg" xmlns:xlink="http://www.w3.org/1999/xlink" version="1.1" id="mdi-iframe-variable-outline" width="24" height="24" viewBox="0 0 24 24"><path d="M21 2H3C1.9 2 1 2.9 1 4V20C1 21.1 1.9 22 3 22H21C22.1 22 23 21.1 23 20V4C23 2.9 22.1 2 21 2M21 20H3V6H21V20M16.6 8C18.1 9.3 19 11.1 19 13C19 14.9 18.1 16.7 16.6 18L15 17.4C16.3 16.4 17 14.7 17 13S16.3 9.6 15 8.6L16.6 8M7.4 8L9 8.6C7.7 9.6 7 11.3 7 13S7.7 16.4 9 17.4L7.4 18C5.9 16.7 5 14.9 5 13S5.9 9.3 7.4 8M12.1 12L13.5 10H15L12.8 13L14.1 16H12.8L12 14L10.6 16H9L11.3 12.9L10 10H11.3L12.1 12Z" /></svg>
